X:1
T:Title
%%score ( 1 2 ) ( 3 4 )
L:1/8
Q:1/4=96
M:4/4
K:Ab
V:1 treble nm="Grand Piano, Soprano"
V:2 treble 
V:3 bass nm="Choir Pad, Bass"
V:4 bass 
V:1
 [Ec][DB] [CA]2 [Ec]2 [CE]2- | [CE][CE] [DF]>[EG] [FA]>[FB] [Ec]2 | %2
w: By~Samuel~William~Beazley * * * *||
 [Ec]>[Fd] [Ec][EB] [EB][EB] [EB]2 | [EB]>[Ec] [DB][CA] [CA][CA] [CA]2 | %4
w: ||
 [Ec][DB] [CA]2 [Ec]2 [CE]2- | [CE][CE] [DF]>[EG] [FA]>[FB] [Ec]2 | %6
w: ||
 [Ec]2 [EB]>[EB] [EB][EB] [Ge]>[Ge] | [EG][EG] [=DB]>[DA] [DG][DF] E2 | %8
w: ||
 ed[Ac][Ac] [Ac][Ac] [Ac]2- | [Ac][EA] [FB]2 [FA]>[DF] [CE]2 | [CA]2 [EB][EB] [EB][Ec] [Ed]2 | %11
w: |||
 [Ec]2 [EB]6 | ed[Ac][Ac] [Ac][Ac] [Ac]2 | [EA][EA] [FB]2 [Fc]2 [Fd]2 | %14
w: |||
 [Fd]2 [Ec]2 [CE]>[Ec] [DB]2 | [DE]>[DB] [CA]6- | [CA]2 z2 z4 |] %17
w: |||
V:2
 x8 | x8 | x8 | x8 | x8 | x8 | x8 | x8 | G2 z2 z4 | x8 | x8 | x8 | G2 z2 z4 | x8 | x8 | x8 | x8 |] %17
V:3
 [A,,A,][A,,A,] [A,,A,]2 [A,,A,]2 [A,,A,]2- | [A,,A,][A,,A,] [D,A,]>[D,A,] [D,A,]>[D,A,] [A,,A,]2 | %2
 [A,,A,]>[A,,A,] [E,A,][E,G,] [E,G,][E,G,] [E,G,]2 | %3
 [E,G,]>[E,A,] [A,,A,][A,,E,] [A,,E,][A,,E,] [A,,E,]2 | %4
 [A,,A,][A,,A,] [A,,A,]2 [A,,A,]2 [A,,A,]2- | [A,,A,][A,,A,] [D,A,]>[D,A,] [D,A,]>[D,A,] [A,,A,]2 | %6
 [A,,A,]2 [E,G,]>[E,G,] [E,G,][E,G,] [E,B,]>[E,B,] | %7
 [E,B,][E,B,] [B,,B,]>[B,,B,] [B,,B,][B,,B,] [E,G,]2 | .B,2[K:treble] z2 z4 | z8[K:bass] | %10
 [A,,A,]2 [E,G,][E,G,] [E,G,][E,A,] [E,B,]2 | [E,A,]2 [E,G,]6 | %12
 E,-[E,E][A,E][A,E] [A,E][A,E] [A,E]2 | [C,A,][C,A,] [D,A,]2 [C,=A,]2 [B,,A,]2 | %14
 [B,,F,]2 [E,A,]2 [E,A,]>[E,A,] [E,G,]2 | [E,G,]>E, [A,,E,]6- | [A,,E,]2 z2 z4 |] %17
V:4
 x8 | x8 | x8 | x8 | x8 | x8 | x8 | x8 | E,-[E,E][K:treble]EE EE [A,E]2- | %9
 [A,E][K:bass][A,C] [D,D]2 [D,D]>[D,A,] [A,,A,]2 | x8 | x8 | .B,2 z2 z4 | x8 | x8 | x8 | x8 |] %17

